src/assets/img/icon_4.svg

<svg width="59" height="54" viewBox="0 0 59 54" fill="none" xmlns="http://www.w3.org/2000/svg">
<path d="M29.4093 4.49563L29.6537 4.05941L29.4093 3.92253L29.165 4.05941L29.4093 4.49563ZM21.4641 8.94629H20.9641V9.79947L21.7084 9.38251L21.4641 8.94629ZM21.4641 0.894531H21.9641V0.394531H21.4641V0.894531ZM13.1114 0.894531V0.394531H12.6114V0.894531H13.1114ZM13.1114 13.6252L13.3557 14.0614L13.6114 13.9182V13.6252H13.1114ZM51.0041 53.1105V53.6105H51.5041V53.1105H51.0041ZM7.81455 53.1105H7.31455V53.6105H7.81455V53.1105ZM39.1248 29.1763L39.4881 29.5198L39.1248 29.1763ZM28.9104 39.9796L28.547 39.6361L28.9104 39.9796ZM26.5028 39.9796L26.8661 39.6361L26.5028 39.9796ZM19.6932 32.7774L19.3299 33.1209L19.6932 32.7774ZM22.1008 30.2311L22.4641 29.8875L22.1008 30.2311ZM27.7066 36.1601L27.3433 36.5036C27.4377 36.6035 27.5691 36.6601 27.7066 36.6601C27.844 36.6601 27.9755 36.6035 28.0699 36.5036L27.7066 36.1601ZM36.7172 26.63L36.3539 26.2864L36.7172 26.63ZM29.165 4.93185L58.0939 21.1368L58.5826 20.2644L29.6537 4.05941L29.165 4.93185ZM21.7084 9.38251L29.6537 4.93185L29.165 4.05941L21.2197 8.51006L21.7084 9.38251ZM21.9641 8.94629V0.894531H20.9641V8.94629H21.9641ZM21.4641 0.394531H13.1114V1.39453H21.4641V0.394531ZM0.724825 21.1368L13.3557 14.0614L12.867 13.189L0.236112 20.2644L0.724825 21.1368ZM12.6114 0.894531V13.6252H13.6114V0.894531H12.6114ZM51.0041 52.6105H7.81455V53.6105H51.0041V52.6105ZM8.31455 53.1105V23.2214H7.31455V53.1105H8.31455ZM50.5041 23.2214V53.1105H51.5041V23.2214H50.5041ZM39.4881 29.5198C40.3351 28.6239 40.3351 27.1824 39.4881 26.2864L38.7614 26.9735C39.244 27.4839 39.244 28.3224 38.7614 28.8328L39.4881 29.5198ZM29.2737 40.3231L39.4881 29.5198L38.7614 28.8328L28.547 39.6361L29.2737 40.3231ZM26.1395 40.3231C27.0016 41.2349 28.4116 41.2349 29.2737 40.3231L28.547 39.6361C28.0795 40.1306 27.3337 40.1306 26.8661 39.6361L26.1395 40.3231ZM19.3299 33.1209L26.1395 40.3231L26.8661 39.6361L20.0565 32.4339L19.3299 33.1209ZM19.3299 29.8875C18.4828 30.7835 18.4828 32.225 19.3299 33.1209L20.0565 32.4339C19.5739 31.9235 19.5739 31.085 20.0565 30.5746L19.3299 29.8875ZM22.4641 29.8875C21.602 28.9757 20.192 28.9757 19.3299 29.8875L20.0565 30.5746C20.5241 30.0801 21.2699 30.0801 21.7374 30.5746L22.4641 29.8875ZM28.0699 35.8166L22.4641 29.8875L21.7374 30.5746L27.3433 36.5036L28.0699 35.8166ZM36.3539 26.2864L27.3433 35.8166L28.0699 36.5036L37.0805 26.9735L36.3539 26.2864ZM39.4881 26.2864C38.626 25.3746 37.216 25.3746 36.3539 26.2864L37.0805 26.9735C37.5481 26.479 38.2939 26.479 38.7614 26.9735L39.4881 26.2864Z" fill="white"/>
</svg>

<svg xmlns="http://www.w3.org/2000/svg" fill="none" viewBox="0 0 59 54"><path fill="#fff" d="M29.41 4.496l.244-.437-.245-.136-.244.136.244.437zm-7.946 4.45h-.5V9.8l.744-.416-.244-.437zm0-8.051h.5v-.5h-.5v.5zm-8.353 0v-.5h-.5v.5h.5zm0 12.73l.245.436.255-.143v-.293h-.5zm37.893 39.486v.5h.5v-.5h-.5zm-43.19 0h-.5v.5h.5v-.5zm31.31-23.935l.364.344-.363-.344zM28.91 39.98l-.363-.344.363.344zm-2.407 0l.363-.344-.363.344zm-6.81-7.203l-.363.344.363-.344zm2.408-2.546l.363-.344-.363.344zm5.606 5.93l-.364.343a.5.5 0 0 0 .727 0l-.363-.344zm9.01-9.531l-.363-.344.363.344zM29.165 4.932l28.929 16.205.489-.873L29.653 4.06l-.488.873zm-7.457 4.45l7.946-4.45-.489-.873L21.22 8.51l.488.873zm.256-.436V.895h-1v8.051h1zm-.5-8.551h-8.353v1h8.353v-1zM.724 21.137l12.632-7.076-.489-.872-12.63 7.075.488.873zM12.612.895v12.73h1V.895h-1zM51.004 52.61H7.814v1h43.19v-1zm-42.69.5V23.222h-1v29.89h1zm42.19-29.889v29.89h1V23.22h-1zM39.488 29.52a2.375 2.375 0 0 0 0-3.234l-.727.688c.483.51.483 1.348 0 1.859l.727.687zM29.274 40.323L39.488 29.52l-.727-.687-10.214 10.803.727.687zm-3.134 0a2.137 2.137 0 0 0 3.134 0l-.727-.687a1.138 1.138 0 0 1-1.68 0l-.727.687zm-6.81-7.202l6.81 7.202.726-.687-6.81-7.202-.726.687zm0-3.234a2.375 2.375 0 0 0 0 3.234l.727-.687a1.375 1.375 0 0 1 0-1.86l-.727-.687zm3.134 0a2.137 2.137 0 0 0-3.134 0l.727.688a1.138 1.138 0 0 1 1.68 0l.727-.688zm5.606 5.93l-5.606-5.93-.727.688 5.606 5.929.727-.687zm8.284-9.53l-9.01 9.53.726.687 9.01-9.53-.726-.688zm3.134 0a2.137 2.137 0 0 0-3.134 0l.727.687a1.138 1.138 0 0 1 1.68 0l.727-.688z"/></svg>
